resources/haticons/SVG/landline.svg

<!-- Generated by IcoMoon.io -->
<svg version="1.1" xmlns="http://www.w3.org/2000/svg" width="24" height="24" viewBox="0 0 24 24">
<title>landline</title>
<path d="M24 7.575c0-0.525-0.15-2.7-1.125-3.075-2.175-0.825-7.35-1.5-10.875-1.5s-8.775 0.675-10.875 1.5c-0.975 0.375-1.125 2.55-1.125 3.075v0.45l0.225 0.975c0.075 0.525 0.675 0.9 1.2 0.825l4.575-0.9c0.525-0.075 0.9-0.675 0.825-1.2l-0.225-1.275c0.45-0.075 0.825-0.15 1.275-0.15l-0.15 2.025s-6.9 3.75-6.9 5.175v6.825h22.35v-6.825c0-1.35-6.9-5.175-6.9-5.175l-0.15-2.025c0.45 0.075 0.825 0.075 1.275 0.15l-0.225 1.275c-0.075 0.525 0.225 1.125 0.825 1.2l4.65 0.9c0.525 0.075 1.050-0.225 1.2-0.825l0.225-1.050c-0.075-0.15-0.075-0.225-0.075-0.375zM12 5.925c0.45 0 2.1 0.075 2.55 0.15l-0.15 2.025h-4.8l-0.15-2.025c0.9-0.075 1.8-0.15 2.55-0.15zM12 17.475c-1.8 0-3.225-1.35-3.225-3.075s1.425-3.075 3.225-3.075 3.225 1.35 3.225 3.075-1.425 3.075-3.225 3.075z"></path>
</svg>

<svg xmlns="http://www.w3.org/2000/svg" width="24" height="24"><path d="M24 7.575c0-.525-.15-2.7-1.125-3.075C20.7 3.675 15.525 3 12 3s-8.775.675-10.875 1.5C.15 4.875 0 7.05 0 7.575v.45L.225 9c.075.525.675.9 1.2.825L6 8.925c.525-.075.9-.675.825-1.2L6.6 6.45c.45-.075.825-.15 1.275-.15l-.15 2.025s-6.9 3.75-6.9 5.175v6.825h22.35V13.5c0-1.35-6.9-5.175-6.9-5.175l-.15-2.025c.45.075.825.075 1.275.15l-.225 1.275c-.075.525.225 1.125.825 1.2l4.65.9A1.063 1.063 0 0 0 23.85 9l.225-1.05C24 7.8 24 7.725 24 7.575zm-12-1.65c.45 0 2.1.075 2.55.15L14.4 8.1H9.6l-.15-2.025c.9-.075 1.8-.15 2.55-.15zm0 11.55c-1.8 0-3.225-1.35-3.225-3.075S10.2 11.325 12 11.325s3.225 1.35 3.225 3.075S13.8 17.475 12 17.475z"/></svg>
